symbols/web/dock/materialsymbolsrounded/dock_wght200gradN25fill1_48px.svg

<svg xmlns="http://www.w3.org/2000/svg" height="48" width="48"><path d="M17.8 42.7q-.35 0-.575-.225Q17 42.25 17 41.95q0-.35.225-.55.225-.2.575-.2h12.45q.3 0 .525.2.225.2.225.5 0 .35-.225.575-.225.225-.525.225Zm-1.5-5q-1.1 0-1.9-.825-.8-.825-.8-1.925V7.6q0-1.1.8-1.925t1.9-.825h15.4q1.1 0 1.9.825.8.825.8 1.925v27.35q0 1.1-.8 1.925t-1.9.825Zm-1.2-6.5h17.8V11.35H15.1Z"/></svg>

<svg xmlns="http://www.w3.org/2000/svg" height="48" width="48"><path d="M17.8 42.7Q17.45 42.7 17.225 42.475Q17 42.25 17 41.95Q17 41.6 17.225 41.4Q17.45 41.2 17.8 41.2H30.25Q30.55 41.2 30.775 41.4Q31 41.6 31 41.9Q31 42.25 30.775 42.475Q30.55 42.7 30.25 42.7ZM16.3 37.7Q15.2 37.7 14.4 36.875Q13.6 36.05 13.6 34.95V7.6Q13.6 6.5 14.4 5.675Q15.2 4.85 16.3 4.85H31.7Q32.8 4.85 33.6 5.675Q34.4 6.5 34.4 7.6V34.95Q34.4 36.05 33.6 36.875Q32.8 37.7 31.7 37.7ZM15.1 31.2H32.9V11.35H15.1Z"/></svg>
